svgs/duotone/align-slash.svg

<svg xmlns="http://www.w3.org/2000/svg" viewBox="0 0 640 512"><!--! Font Awesome Pro 6.3.0 by @fontawesome - https://fontawesome.com License - https://fontawesome.com/license (Commercial License) Copyright 2023 Fonticons, Inc. --><defs><style>.fa-secondary{opacity:.4}</style></defs><path class="fa-primary" d="M5.112 9.196C13.29-1.236 28.37-3.065 38.81 5.112L630.8 469.1C641.2 477.3 643.1 492.4 634.9 502.8C626.7 513.2 611.6 515.1 601.2 506.9L9.196 42.89C-1.236 34.71-3.065 19.63 5.112 9.196V9.196z"/><path class="fa-secondary" d="M399.7 288H512C529.7 288 544 302.3 544 320C544 337.7 529.7 352 512 352H481.4L399.7 288zM236.4 160H512C529.7 160 544 174.3 544 192C544 209.7 529.7 224 512 224H318.1L236.4 160zM98.4 51.82C103.2 40.19 114.6 32 128 32H512C529.7 32 544 46.33 544 64C544 81.67 529.7 96 512 96H154.8L98.4 51.82zM128 352C110.3 352 96 337.7 96 320C96 302.3 110.3 288 128 288H243.7L324.9 352H128zM128 224C110.3 224 96 209.7 96 192C96 185.9 97.71 180.2 100.7 175.3L162.5 224H128zM128 480C110.3 480 96 465.7 96 448C96 430.3 110.3 416 128 416H406.2L487.4 480H128z"/></svg>

<svg xmlns="http://www.w3.org/2000/svg" viewBox="0 0 640 512"><!--! Font Awesome Pro 6.4.0 by @fontawesome - https://fontawesome.com License - https://fontawesome.com/license (Commercial License) Copyright 2023 Fonticons, Inc. --><defs><style>.fa-secondary{opacity:.4}</style></defs><path class="fa-primary" d="M5.1 9.2C13.3-1.2 28.4-3.1 38.8 5.1l592 464c10.4 8.2 12.3 23.3 4.1 33.7s-23.3 12.3-33.7 4.1L9.2 42.9C-1.2 34.7-3.1 19.6 5.1 9.2z"/><path class="fa-secondary" d="M406.2 416l81.2 64H128c-17.7 0-32-14.3-32-32s14.3-32 32-32H406.2zM243.7 288l81.2 64H128c-17.7 0-32-14.3-32-32s14.3-32 32-32H243.7zm-143-112.7L162.5 224H128c-17.7 0-32-14.3-32-32c0-6.1 1.7-11.8 4.7-16.7zM399.7 288H512c17.7 0 32 14.3 32 32s-14.3 32-32 32H481.4l-81.7-64zM236.4 160H512c17.7 0 32 14.3 32 32s-14.3 32-32 32H318.1l-81.7-64zM512 96H154.8L98.4 51.8C103.2 40.2 114.6 32 128 32H512c17.7 0 32 14.3 32 32s-14.3 32-32 32z"/></svg>
